assets/icon-hammer.svg

<svg fill="none" height="24" viewBox="0 0 24 24" width="24" xmlns="http://www.w3.org/2000/svg"><path d="m7.67163 5.62317c1.86137-1.86086 4.84727-1.9598 6.82817-.22656l.831.72754c.1039.0911.1663.22125.1709.35937.0045.13815-.0488.27233-.1465.37012l-.5.5c-.1413.14131-.3534.18437-.539.11035l-1.7178-.68652c-.2888-.11545-.6188-.04786-.8389.17187l-.0469.04688c-.2781.27808-.2781.72975 0 1.00781.2674.26799.2713.69659.0157.97168l6.7763 5.97949c.9346.8246.98 2.2671.0987 3.1484-.8814.8811-2.3239.8359-3.1485-.0986l-5.97751-6.7744-.12207.123c-.19513.1952-.51173.1949-.70703 0l-.54297-.5429c-.19517-.1952-.51175-.195-.70703 0l-.08593.0859c-.19519.1953-.19522.5118 0 .707l.04296.043c.09357.0937.14648.2211.14649.3535-.00005.1325-.05285.2598-.14649.3535l-1.14648 1.1465c-.39041.3904-1.02352.3902-1.41406 0l-1.79297-1.7929c-.39048-.3906-.39047-1.0236 0-1.4141l1.14648-1.14649.07813-.06446c.19404-.12797.45811-.10631.6289.06446l.04297.04297c.19528.19478.51192.19503.70703 0l.08594-.08594c.1949-.19513.19474-.51181 0-.70703l-.04297-.04297c-.09372-.09372-.14643-.22098-.14648-.35352 0-.13261.05272-.25975.14648-.35351zm2.51467 4.89843 6.0185 6.8223c.4429.5019 1.218.5259 1.6914.0527.4735-.4734.4493-1.2484-.0527-1.6914l-6.8223-6.01855zm3.6543-4.37304c-1.5847-1.38638-3.9729-1.30689-5.46194.18164l-1.71679 1.71582c.30145.56695.21387 1.28691-.26368 1.76465l-.08593.08594c-.47771.47759-1.19766.56509-1.76465.26369l-.83887.8398 1.79297 1.793.83887-.8399c-.30104-.5669-.21283-1.2861.26464-1.7636l.08594-.086c.5858-.58547 1.5354-.58563 2.1211 0l.18945.1895 1.81149-1.81251c-.468-.66783-.4042-1.59484.1924-2.19141l.0469-.04687c.503-.50264 1.2577-.65767 1.918-.39356l.9726.38868z" fill="#000"/></svg>

<svg width="24" height="24" viewBox="0 0 24 24" fill="none" xmlns="http://www.w3.org/2000/svg">
<path d="M7.67163 5.62317C9.533 3.76231 12.5189 3.66337 14.4998 5.39661L15.3308 6.12415C15.4347 6.21525 15.4971 6.3454 15.5017 6.48352C15.5062 6.62167 15.4529 6.75585 15.3552 6.85364L14.8552 7.35364C14.7139 7.49495 14.5018 7.53801 14.3162 7.46399L12.5984 6.77747C12.3096 6.66202 11.9796 6.72961 11.7595 6.94934L11.7126 6.99622C11.4345 7.2743 11.4345 7.72597 11.7126 8.00403C11.98 8.27202 11.9839 8.70062 11.7283 8.97571L18.5046 14.9552C19.4392 15.7798 19.4846 17.2223 18.6033 18.1036C17.7219 18.9847 16.2794 18.9395 15.4548 18.005L9.47729 11.2306L9.35522 11.3536C9.16009 11.5488 8.84349 11.5485 8.64819 11.3536L8.10522 10.8107C7.91005 10.6155 7.59347 10.6157 7.39819 10.8107L7.31226 10.8966C7.11707 11.0919 7.11704 11.4084 7.31226 11.6036L7.35522 11.6466C7.44879 11.7403 7.5017 11.8677 7.50171 12.0001C7.50166 12.1326 7.44886 12.2599 7.35522 12.3536L6.20874 13.5001C5.81833 13.8905 5.18522 13.8903 4.79468 13.5001L3.00171 11.7072C2.61123 11.3166 2.61124 10.6836 3.00171 10.2931L4.14819 9.14661L4.22632 9.08215C4.42036 8.95418 4.68443 8.97584 4.85522 9.14661L4.89819 9.18958C5.09347 9.38436 5.41011 9.38461 5.60522 9.18958L5.69116 9.10364C5.88606 8.90851 5.8859 8.59183 5.69116 8.39661L5.64819 8.35364C5.55447 8.25992 5.50176 8.13266 5.50171 8.00012C5.50171 7.86751 5.55443 7.74037 5.64819 7.64661L7.67163 5.62317ZM10.1863 10.5216L16.2048 17.3439C16.6477 17.8458 17.4228 17.8698 17.8962 17.3966C18.3697 16.9232 18.3455 16.1482 17.8435 15.7052L11.0212 9.68665L10.1863 10.5216ZM13.8406 6.14856C12.2559 4.76218 9.8677 4.84167 8.37866 6.3302L6.66187 8.04602C6.96332 8.61297 6.87574 9.33293 6.39819 9.81067L6.31226 9.89661C5.83455 10.3742 5.1146 10.4617 4.54761 10.1603L3.70874 11.0001L5.50171 12.7931L6.34058 11.9532C6.03954 11.3863 6.12775 10.6671 6.60522 10.1896L6.69116 10.1036C7.27696 9.51813 8.22656 9.51797 8.81226 10.1036L9.00171 10.2931L10.8132 8.48059C10.3452 7.81276 10.409 6.88575 11.0056 6.28918L11.0525 6.24231C11.5555 5.73967 12.3102 5.58464 12.9705 5.84875L13.9431 6.23743L13.8406 6.14856Z" fill="black"/>
</svg>
